!!!OTL: Elsass und Lothringen.
!!!OTL-incipit: ICH WEISS ZWEI HOHE MAUERN
!!!COM: A. Harder
!!!ARE: Europa, Mitteleuropa, Deutschland
!!!SCT: F0395
!!!TXL: @@DE
!!!YEM: Copyright 1995, estate of Helmut Schaffrath.
**kern	**text
*ICvox	*
*M2/4	*
*k[b-e-]	*
*B-:	*
!LO:TX:a:t=Ruhig.	!
{8f	1._Jch
=1	=1
8b-/	weiß
8b-/	ʒwei
16b-/L	ho-
16aJ	.
16gL	-he
16aJ	.
=2	=2
4b-/	Mau-
8cc/}	-ern,
{8cc/	von
=3	=3
8dd/	Gott
8b-/	dem
8g	Herrn
8cc/	er-
=4	=4
(4b-/	-baut,
8a)}	.
{8f	die
=5	=5
8b-/	hat
8b-/	mit
16b-/L	ſtil-
16aJ	.
16gL	-lem
16aJ	.
=6	=6
4b-/	Trauern
8cc/}	.
{8cc/	manch
=7	=7
16dd/L	Deut-
16ffJ	.
16dd/L	-ſcher
16b-J	.
16aL	an-
16ccJ	.
16b-/L	-ge-
16gJ	.
=8	=8
(4g	-ſchaut.
8f)}	.
{8f	Vo-
=9	=9
8.ee-/	-ge-
16dd/	-ſen
8cc/	und
8cc/	Ar-
=10	=10
8.dd/	-dennen
16cc/	.
8b-/}	Wald,
{8dd/	die
=11	=11
16ff/L	ſoll-
16ee-J	.
16dd/L	-ten
16ccJ	.
16ee-/L	fe-
16ddJ	.
16cc/L	-ſten
16b-J	.
=12	=12
8dd/	Wi-
8dd/	-der-
8cc/}	-halt
{8f	dem
=13	=13
8b-/	Reich
8b-/	nach
16gL	We-
16aJ	.
16b-L	-ſten
16gJ	.
=14	=14
(8.f	ge-
16e-)	.
8d}	-ben,
{8f	dem
=15	=15
16g/L	Reich
16ee-J	.
16dd/L	nach
16ccJ	.
16cc/L	We-
16b-J	.
16b-L	-ſten
16aJ	.
=16	=16
4a	ge-
8b-/}	-ben.
==	==
!!!AGN: Vaterlands -, Heimat - Lied, nationalistisch
!!!ONB: ESAC (Essen Associative Code) Database: FINK
!!!AMT: simple duple
!!!AIN: vox
!!!EED: Helmut Schaffrath
!!!EEV: 1.0
!!!GTL: Vaterlands- und Heimathslieder.
!!Text: Eyle
!!!source: Musikalischer Hausschatz der Deutschen. Eine Sammlung von über 1000 Liedern und Gesängen mit Singstimmen und Klavierbegleitung. Leipzig, Litterarisches Verlags-Haus.
!!!page: 240
!!!ENC: Anna Maria Matuszewska
!!!EEV: 2025/03/14
*-	*-
